src/images/single-assets/DEGEN.svg

<svg xmlns="http://www.w3.org/2000/svg" width="1361" height="1360" fill="none"><g clip-path="url(#a)"><circle cx="680.832" cy="680" r="680" fill="#A36EFD"/><path fill="#4C2897" d="M924.171 356.543c-58.629-6.734-97.724-10.102-241.916-10.102-123.709 0-184.003 4.482-241.916 10.102-27.072 2.624-48.665 23.223-46.677 50.463l32.02 436.189 256.55 91.938 256.573-91.938 32.02-436.189c2.011-27.24-19.651-47.351-46.677-50.463z"/><path fill="#4C2897" d="M1004.37 733.314s-54.675 32.836-74.465 40.361c-59.461 22.641-247.626 58.311-247.626 58.311s-188.187-35.646-247.626-58.311c-19.79-7.548-74.466-40.361-74.466-40.361-34.077-18.462-72.108 8.058-72.177 46.956-.116 62.956 49.058 127.608 115.386 168.363 74.79 45.957 186.431 65.027 278.883 65.027s204.093-19.07 278.883-65.027c66.328-40.755 115.498-105.43 115.388-168.363-.07-38.898-38.1-65.418-72.18-46.956"/><path fill="#BB96F9" d="M950.641 700.792c-42.122 11.89-107.803 44.936-268.386 44.936s-226.265-33.046-268.387-44.936c-7.075-1.997-13.987 3.576-13.594 10.961l5.71 104.014c.208 3.948 1.688 7.663 4.185 10.706 17.454 21.132 95.712 94.864 272.062 94.864s253.661-72.78 271.763-94.47c2.728-3.274 4.3-7.338 4.554-11.611l5.687-103.503c.417-7.361-6.519-12.958-13.594-10.961"/></g><defs><clipPath id="a"><path fill="#fff" d="M.832 0h1360v1360H.832z"/></clipPath></defs></svg>

<svg width="1361" height="1360" viewBox="0 0 1361 1360" fill="none" xmlns="http://www.w3.org/2000/svg">
<g clip-path="url(#clip0_280_1139)">
<circle cx="680.832" cy="680" r="680" fill="#A36EFD"/>
<path d="M924.171 356.543C865.542 349.809 826.447 346.441 682.255 346.441C558.546 346.441 498.252 350.923 440.339 356.543C413.267 359.167 391.674 379.766 393.662 407.006L425.682 843.195L682.232 935.133L938.805 843.195L970.825 407.006C972.836 379.766 951.174 359.655 924.148 356.543H924.171Z" fill="#4C2897"/>
<path d="M1004.37 733.314C1004.37 733.314 949.695 766.15 929.905 773.675C870.444 796.316 682.279 831.986 682.279 831.986C682.279 831.986 494.092 796.34 434.653 773.675C414.863 766.127 360.187 733.314 360.187 733.314C326.11 714.852 288.079 741.372 288.01 780.27C287.894 843.226 337.068 907.878 403.396 948.633C478.186 994.59 589.827 1013.66 682.279 1013.66C774.731 1013.66 886.372 994.59 961.162 948.633C1027.49 907.878 1076.66 843.203 1076.55 780.27C1076.48 741.372 1038.45 714.852 1004.37 733.314Z" fill="#4C2897"/>
<path d="M950.641 700.792C908.519 712.682 842.838 745.728 682.255 745.728C521.671 745.728 455.99 712.682 413.868 700.792C406.793 698.795 399.881 704.368 400.274 711.753L405.984 815.767C406.192 819.715 407.672 823.43 410.169 826.473C427.623 847.605 505.881 921.337 682.231 921.337C858.582 921.337 935.892 848.557 953.994 826.867C956.722 823.593 958.294 819.529 958.548 815.256L964.235 711.753C964.652 704.392 957.716 698.795 950.641 700.792Z" fill="#BB96F9"/>
</g>
<defs>
<clipPath id="clip0_280_1139">
<rect width="1360" height="1360" fill="white" transform="translate(0.832031)"/>
</clipPath>
</defs>
</svg>
